!!!COM: Marietta 
!!!OTL: ...so they left me at a gas station 
!!!YEAR: 2013
**kern
*k[]
*Bb:
*
*
*M(4/4)
=1=1
4BB-
8d
8f
8
8BB-
8e-
8d
=2=2
8
8BB-
8B-
8c
8
4f
8d
=3=3
4BB-
8d
8f
8
8BB-
8e-
8d
=4=4
8
8BB-
8B-
8c
8
4f
8d
=5=5
4BB-
8d
8f
8
8BB-
8e-
8d
=6=6
8
8BB-
8B-
8c
8
4f
8d
=7=7
2EE-
8d
8e-
8
8f
=8=8
8
8e-
8d
8
8
8F
8B-
8d
=*=*
